packages/icons/general/Twitter.svg

<svg width="16" height="16" viewBox="0 0 16 16" xmlns="http://www.w3.org/2000/svg">
<g>
        <path
            d="M13.3303 4.45862C13.9279 4.10134 14.375 3.53878 14.5883 2.87595C14.0267 3.20915 13.4123 3.44387 12.7716 3.56995C11.8833 2.6303 10.4759 2.40164 9.33585 3.01172C8.19578 3.62181 7.60526 4.91961 7.89425 6.17995C5.59399 6.06447 3.4509 4.9779 1.99825 3.19062C1.24015 4.49823 1.62756 6.16981 2.88359 7.01062C2.42939 6.99602 1.98527 6.87304 1.58825 6.65195C1.58825 6.66395 1.58825 6.67595 1.58825 6.68795C1.58852 8.05005 2.5485 9.22334 3.88359 9.49328C3.4623 9.6079 3.02039 9.62478 2.59159 9.54262C2.96705 10.7075 4.04062 11.5055 5.26425 11.5293C4.25081 12.3247 2.99924 12.7561 1.71092 12.754C1.48257 12.7543 1.25439 12.7411 1.02759 12.7146C2.33585 13.5553 3.8585 14.0015 5.41359 14C7.57709 14.0148 9.65627 13.1619 11.1861 11.632C12.7159 10.102 13.5686 8.02278 13.5536 5.85928C13.5536 5.73528 13.5507 5.61195 13.5449 5.48928C14.1052 5.08435 14.5888 4.58272 14.9729 4.00795C14.4509 4.23933 13.8972 4.39123 13.3303 4.45862Z"
            fill="white"
        />
    </g>
</svg>

<svg xmlns="http://www.w3.org/2000/svg" viewBox="0 0 16 16">
    <path fill="#fff" d="M13.33 4.459a2.867 2.867 0 0 0 1.258-1.583 5.728 5.728 0 0 1-1.816.694 2.867 2.867 0 0 0-4.878 2.61 8.123 8.123 0 0 1-5.896-2.99 2.867 2.867 0 0 0 .886 3.82 2.85 2.85 0 0 1-1.296-.358v.036c0 1.362.96 2.535 2.296 2.805a2.867 2.867 0 0 1-1.292.05 2.867 2.867 0 0 0 2.672 1.986 5.74 5.74 0 0 1-3.553 1.225c-.228 0-.457-.013-.683-.04A8.099 8.099 0 0 0 5.414 14a8.085 8.085 0 0 0 8.13-8.51 5.812 5.812 0 0 0 1.429-1.482 5.72 5.72 0 0 1-1.643.45Z"/>
</svg>
